X:1
T:Menuet
T:Menuet
T:(Minuet) BWV Anh. 121
T:Johann Sebastian Bach?
C:Johann Sebastian Bach?
%%score 1 2
L:1/8
Q:1/4=132
M:3/4
K:Cmin
V:1 treble 
V:2 bass 
V:1
 c2 c2 d2 | e2 e2 f2 | g2 g2 a2 | T^f4 g2- | ga=f=e f2- | fg_ed e2 | c=B c2 d2 | G6 :: G2 G2 A2 | %9
 BAGA B2 | C2 =E2 (3GAB | AG F4 | F2 F2 G2 | AGFG A2 | B,2 D2 (3FGA | GF E4 | G2 A2 =A2 | %17
 B2 =B2 c2 | =B2 c2 d2 | e2 =e2 f2 | d2 _e2 =e2 | f2 ^f2 g2 | G2 =fede | c6 :| %24
V:2
 C,4 z2 | C,2 C,2 D,2 | E,2 E,2 C,2 | D,2 C,2 =B,,2 | _B,,4 =A,,2 | _A,,4 G,,2 | A,,4 F,,2 | %7
 G,,2 G,F,E,D, :: C,2- [C,-=E,]2 [C,F,]2 | G,2 =E,2 C,2 | =E,2 C,2 E,2 | F,3 G,F,_E, | %12
 D,2- [B,,D,]2 E,2 | F,2 D,2 C,2 | D,2 B,,2 D,2 | E,3 F,E,D, | C,2 F,2 E,2 | D,2 G,2 E,2 | %18
 D,2 C,2 =B,,2 | C,2 _B,,2 =A,,2 | =B,,2 C,2 _B,,2 | =A,,2 _A,,2 G,,2 | E,2 F,2 G,2 | C,6 :| %24

